FINK
CUT[EIN STRAEUSSCHEN AM HUTE]
REG[Europa, Mitteleuropa, Deutschland]
KEY[F0376  08  A 3/4]
MEL[-5_  3_.21_  1_-5_
    -5_  -5_-7_1_  2__
    -5_  4_.32_  2_-7_
    -5_  -5_3_.2  1_0_
    -71  2_.32_  2_.3
    2_  2_5_.4  3__
    12  3_.23_  4_-6_
    2_  1_3_2_  1__
    -71  2_.32_  2_.3
    2_  2_5_.4  3__
    12  3_.23_  4_-6_
    2_  1_3_2_  1__ //] >>
FCT[Jugend - Lied, Wander - Lied, Moral]
